X:21981
T:Va ben-seyr ayns y gharey 
T:There was a lady in the garden
C:Traditional
O:Isle of Man
Z:Clague collection
B:Kiaull Vannin #198 (See revised version; re-barred and time signature changed as in Manx National Music.) 
M:2/4 
L:1/8 
K:D 
A| de dA | dB A>F|D3 F | GA BG | FE FG|A3A | 
FA ge | ea fe | dB AG | FA  ge | fd (A!3!Bc)|d3|| 
